X:18565
T:Wedding Day. HSJJ.029
M:4/4
L:1/8
Q:180
S:HSJ Jackson,Wyresdale,Lancs.1823
R:Reel
O:England
A:Lancashire
N:Remarkably similar to the previous tune!.
H:1823
Z:Chris Partington.
K:Bb
F|DFBd fgfd|egGc Accd|DFBd fdbd|ecAf dBB:|!
|:f|fBdB FBdB|GccB Acce|dfBd GBEg|fbce dBB:|]


